X:11
T:Polska från Västergötland
T:Svenska Folkdansar H1 nr 11
O:Västergötland
B:Traditioner av Svenska Folkdansar Häfte 1, nr 11
R:Polska
Z:Nils L
U:V = wedge
M:3/4
L:1/8
K:Am
A>B  c2 B>A | ^G>B e2  G2 | A>B  c2 (B>A) | (A^G/A/)    VBVG E2                    |
SA>B c2 B>A | ^G>B e2  G2 | A>B c2 B>A   | (^G/A/B/G/) A2   A,2 !fine!            ::
e2   c2 c>e | (e>d)  VB2 z2 | d2  B2 B>d   | ce/c/   "_D.C. al Segno"     A2  z2  ||

